X: 35106
T: Rolling Waves, The
R: jig
M: 6/8
K: Dmajor
|:FEF D3|D2d cAG|E ~F2 DED|~A2F GFE|
FEF D3|D2d cAG|FAD GBd|~A2F GFE:|
D2d cAd|cAd cAG|~F2 d cAG|~A2F GFE|
D2 A cde|(3gfe d cAG|FAD GBd|~A2F GFE:|

